X: 5
T: The Flax In Bloom
R: reel
M: 4/4
L: 1/8
K: Dmaj
~f2af dfaf|~g2fg e~B3|f~d3 Adfd|ceae c/d/e ae|~f2af dfaf|~g2fg e~B3|A~F3 ABdf|afeg f~d3:||


Tune 748	Setting 13842

